X:28
T:Jenny Lind
M:2/2
L:1/8
K:D
P:A
"D"F2A2 "G"G2B2|"D"A2f2 fef2|"A7"G2e2 ede2|"D"F2d2 dcd2|\
"D"F2A2 "G"G2B2|"D"A2f2 fef2|"Em"g2e2 "A7"egfe|"D"d2f2 d4:|
P:B
K:G
"C"g2f2 egfe|"G"d2B2 BAB2|"D7"c2A2 ABA2|"G"B2G2 GAG2|\
"C"g2f2 egfe|"G"d2B2 BAB2|"D7"c2A2 AcBA|"G"G2B2 G4:|

